img/favicon.svg

<svg width="36" height="36" viewBox="0 0 36 36" fill="none" xmlns="http://www.w3.org/2000/svg">
<path d="M23.625 13.5H5.625C3.76104 13.5 2.25 15.011 2.25 16.875V24.75C2.25 26.614 3.76104 28.125 5.625 28.125H23.625C25.489 28.125 27 26.614 27 24.75V16.875C27 15.011 25.489 13.5 23.625 13.5Z" fill="#FF3D00"/>
<path d="M33.75 25.875L27 22.5V19.125L33.75 15.75V25.875Z" fill="#FF3D00"/>
<path d="M20.25 11.25C22.7353 11.25 24.75 9.23528 24.75 6.75C24.75 4.26472 22.7353 2.25 20.25 2.25C17.7647 2.25 15.75 4.26472 15.75 6.75C15.75 9.23528 17.7647 11.25 20.25 11.25Z" fill="#FF3D00"/>
<path d="M9 11.25C10.864 11.25 12.375 9.73896 12.375 7.875C12.375 6.01104 10.864 4.5 9 4.5C7.13604 4.5 5.625 6.01104 5.625 7.875C5.625 9.73896 7.13604 11.25 9 11.25Z" fill="#FF3D00"/>
<path d="M34.0459 15.2719C33.9643 15.2216 33.8712 15.1929 33.7754 15.1886C33.6797 15.1843 33.5844 15.2044 33.4986 15.2471L27.5625 18.2149V16.875C27.5613 15.8311 27.1461 14.8303 26.4079 14.0921C25.6698 13.3539 24.6689 12.9387 23.625 12.9375H5.625C4.58108 12.9387 3.58025 13.3539 2.84208 14.0921C2.10392 14.8303 1.68869 15.8311 1.6875 16.875V24.75C1.68869 25.7939 2.10392 26.7948 2.84208 27.5329C3.58025 28.2711 4.58108 28.6863 5.625 28.6875H13.2671L8.60231 33.3523C8.49985 33.4584 8.44315 33.6005 8.44443 33.748C8.44572 33.8955 8.50487 34.0365 8.60916 34.1408C8.71346 34.2451 8.85454 34.3043 9.00202 34.3056C9.14951 34.3069 9.2916 34.2502 9.39769 34.1477L14.625 28.9204L19.8523 34.1477C19.9584 34.2502 20.1005 34.3069 20.248 34.3056C20.3955 34.3043 20.5365 34.2451 20.6408 34.1408C20.7451 34.0365 20.8043 33.8955 20.8056 33.748C20.8068 33.6005 20.7502 33.4584 20.6477 33.3523L15.9829 28.6875H23.625C24.6689 28.6863 25.6698 28.2711 26.4079 27.5329C27.1461 26.7948 27.5613 25.7939 27.5625 24.75V23.4101L33.4986 26.3784C33.5843 26.4213 33.6797 26.4415 33.7754 26.4372C33.8712 26.4328 33.9643 26.4041 34.0459 26.3537C34.1274 26.3032 34.1948 26.2328 34.2414 26.149C34.2881 26.0652 34.3125 25.9709 34.3125 25.875V15.75C34.3125 15.6542 34.2879 15.56 34.2413 15.4763C34.1946 15.3926 34.1274 15.3223 34.0459 15.2719ZM26.4375 24.75C26.4366 25.4956 26.14 26.2105 25.6128 26.7378C25.0855 27.265 24.3706 27.5616 23.625 27.5625H5.625C4.87935 27.5616 4.1645 27.265 3.63725 26.7378C3.11 26.2105 2.81339 25.4956 2.8125 24.75V16.875C2.81339 16.1294 3.11 15.4145 3.63725 14.8872C4.1645 14.36 4.87935 14.0634 5.625 14.0625H23.625C24.3706 14.0634 25.0855 14.36 25.6128 14.8872C26.14 15.4145 26.4366 16.1294 26.4375 16.875V24.75ZM33.1875 24.9649L27.5625 22.1524V19.4726L33.1875 16.6601V24.9649ZM20.25 11.8125C21.2513 11.8125 22.2301 11.5156 23.0626 10.9593C23.8951 10.403 24.544 9.61239 24.9271 8.68734C25.3103 7.76229 25.4106 6.74439 25.2152 5.76236C25.0199 4.78033 24.5377 3.87828 23.8297 3.17027C23.1217 2.46227 22.2197 1.98011 21.2376 1.78478C20.2556 1.58944 19.2377 1.68969 18.3127 2.07286C17.3876 2.45603 16.597 3.1049 16.0407 3.93743C15.4844 4.76995 15.1875 5.74873 15.1875 6.75C15.189 8.0922 15.7228 9.37901 16.6719 10.3281C17.621 11.2772 18.9078 11.811 20.25 11.8125ZM20.25 2.8125C21.0288 2.8125 21.79 3.04343 22.4376 3.47609C23.0851 3.90875 23.5898 4.5237 23.8878 5.24319C24.1858 5.96267 24.2638 6.75437 24.1118 7.51817C23.9599 8.28197 23.5849 8.98357 23.0342 9.53424C22.4836 10.0849 21.782 10.4599 21.0182 10.6118C20.2544 10.7638 19.4627 10.6858 18.7432 10.3878C18.0237 10.0898 17.4087 9.58508 16.9761 8.93756C16.5434 8.29004 16.3125 7.52877 16.3125 6.75C16.3137 5.70608 16.7289 4.70525 17.4671 3.96709C18.2052 3.22892 19.2061 2.81369 20.25 2.8125ZM9 11.8125C9.77876 11.8125 10.54 11.5816 11.1876 11.1489C11.8351 10.7163 12.3398 10.1013 12.6378 9.38182C12.9358 8.66233 13.0138 7.87063 12.8618 7.10683C12.7099 6.34303 12.3349 5.64144 11.7842 5.09077C11.2336 4.5401 10.532 4.16509 9.76817 4.01316C9.00437 3.86123 8.21267 3.93921 7.49318 4.23723C6.7737 4.53525 6.15875 5.03993 5.72609 5.68744C5.29343 6.33496 5.0625 7.09624 5.0625 7.875C5.06369 8.91893 5.47892 9.91975 6.21708 10.6579C6.95525 11.3961 7.95608 11.8113 9 11.8125ZM9 5.0625C9.55626 5.0625 10.1 5.22745 10.5625 5.53649C11.0251 5.84554 11.3855 6.28479 11.5984 6.79871C11.8113 7.31262 11.867 7.87812 11.7585 8.42369C11.6499 8.96926 11.3821 9.4704 10.9887 9.86374C10.5954 10.2571 10.0943 10.5249 9.54869 10.6335C9.00312 10.742 8.43762 10.6863 7.9237 10.4734C7.40979 10.2605 6.97053 9.90006 6.66149 9.43754C6.35245 8.97503 6.1875 8.43126 6.1875 7.875C6.18839 7.12936 6.485 6.4145 7.01225 5.88725C7.5395 5.36 8.25435 5.0634 9 5.0625Z" fill="white"/>
</svg>

<svg xmlns="http://www.w3.org/2000/svg" width="36" height="36" fill="none"><path fill="#FF3D00" d="M23.625 13.5h-18a3.375 3.375 0 0 0-3.375 3.375v7.875a3.375 3.375 0 0 0 3.375 3.375h18A3.375 3.375 0 0 0 27 24.75v-7.875a3.375 3.375 0 0 0-3.375-3.375ZM33.75 25.875 27 22.5v-3.375l6.75-3.375v10.125ZM20.25 11.25a4.5 4.5 0 1 0 0-9 4.5 4.5 0 0 0 0 9ZM9 11.25A3.375 3.375 0 1 0 9 4.5a3.375 3.375 0 0 0 0 6.75Z"/><path fill="#fff" d="M34.046 15.272a.564.564 0 0 0-.547-.025l-5.937 2.968v-1.34a3.942 3.942 0 0 0-3.937-3.938h-18a3.942 3.942 0 0 0-3.938 3.938v7.875a3.942 3.942 0 0 0 3.938 3.938h7.642l-4.665 4.664a.563.563 0 0 0 .796.796l5.227-5.228 5.227 5.228a.562.562 0 0 0 .796-.796l-4.665-4.664h7.642a3.942 3.942 0 0 0 3.938-3.938v-1.34l5.936 2.968a.562.562 0 0 0 .813-.503V15.75a.563.563 0 0 0-.266-.478Zm-7.608 9.478a2.816 2.816 0 0 1-2.813 2.813h-18a2.816 2.816 0 0 1-2.813-2.813v-7.875a2.816 2.816 0 0 1 2.813-2.813h18a2.816 2.816 0 0 1 2.813 2.813v7.875Zm6.75.215-5.626-2.813v-2.68l5.625-2.812v8.305ZM20.25 11.813a5.062 5.062 0 1 0 0-10.125 5.062 5.062 0 0 0 0 10.124Zm0-9a3.938 3.938 0 1 1 0 7.875 3.938 3.938 0 0 1 0-7.876Zm-11.25 9a3.938 3.938 0 1 0 0-7.876 3.938 3.938 0 0 0 0 7.876Zm0-6.75a2.812 2.812 0 1 1 0 5.624 2.812 2.812 0 0 1 0-5.624Z"/></svg>
